assets/img/gerencianet-btn.svg

<svg version="1.2" baseProfile="tiny-ps" xmlns="http://www.w3.org/2000/svg" width="33" height="30"><style>.shp0{fill:#fff}</style><g id="Layer"><path id="Layer" class="shp0" d="m15.81 12.74 15.68-4.27L33.02 0 16.48 7.2c-.57.25-1.16.47-1.75.66-.6.19-1.2.36-1.81.48-.61.13-1.23.23-1.85.3-.62.06-1.24.1-1.87.1h-2l-2 4.67h5.87c.4-.01.8-.02 1.2-.05.4-.04.8-.08 1.19-.13.4-.06.79-.13 1.18-.21.4-.08.78-.17 1.17-.28zM2.67 19.41h11.47l15.28.8 1.53-8.4-15.74 2.87-.8.12c-.26.03-.53.06-.79.08-.27.03-.54.04-.81.05-.27.01-.53.02-.8.01H4.54l-1.87 4.47zM11.94 20.95H2l-2 4.67h10.47c.69-.01 1.38.02 2.07.07.68.05 1.37.12 2.05.22a27.789 27.789 0 0 1 4.02.91l8.94 2.73 1.07-6.07-12.14-2.13a22.1 22.1 0 0 0-2.26-.3c-.38-.04-.76-.06-1.14-.08-.38-.02-.76-.02-1.14-.02z"/></g></svg>

<svg version="1.2" baseProfile="tiny-ps" xmlns="http://www.w3.org/2000/svg" viewBox="0 0 33 30" width="33" height="30">
	<title>gerencianet-footer-svg</title>
	<style>
		tspan { white-space:pre }
		.shp0 { fill: #ffffff } 
	</style>
	<g id="Layer">
		<path id="Layer" class="shp0" d="M15.81 12.74L31.49 8.47L33.02 0L16.48 7.2C15.91 7.45 15.32 7.67 14.73 7.86C14.13 8.05 13.53 8.22 12.92 8.34C12.31 8.47 11.69 8.57 11.07 8.64C10.45 8.7 9.83 8.74 9.2 8.74L7.2 8.74L5.2 13.41L11.07 13.41C11.47 13.4 11.87 13.39 12.27 13.36C12.67 13.32 13.07 13.28 13.46 13.23C13.86 13.17 14.25 13.1 14.64 13.02C15.04 12.94 15.42 12.85 15.81 12.74L15.81 12.74Z" />
		<path id="Layer" class="shp0" d="M2.67 19.41L14.14 19.41L29.42 20.21L30.95 11.81L15.21 14.68C14.95 14.72 14.68 14.76 14.41 14.8C14.15 14.83 13.88 14.86 13.62 14.88C13.35 14.91 13.08 14.92 12.81 14.93C12.54 14.94 12.28 14.95 12.01 14.94L4.54 14.94L2.67 19.41Z" />
		<path id="Layer" class="shp0" d="M11.94 20.95L2 20.95L0 25.62L10.47 25.62C11.16 25.61 11.85 25.64 12.54 25.69C13.22 25.74 13.91 25.81 14.59 25.91C15.27 26.01 15.95 26.14 16.62 26.29C17.29 26.44 17.95 26.62 18.61 26.82L27.55 29.55L28.62 23.48L16.48 21.35C16.1 21.28 15.73 21.22 15.35 21.17C14.97 21.12 14.6 21.08 14.22 21.05C13.84 21.01 13.46 20.99 13.08 20.97C12.7 20.95 12.32 20.95 11.94 20.95L11.94 20.95Z" />
	</g>
</svg>
